X: 97
T:Schottische a Virmoux
M:2/2
L:1/8
R:Schottische
C:trad / Frederic Paris
Z:Steve Mansfield
K:G major
BdcB d3B | cBcd e2d2 | dgdB c2BA | BdBG A4 | BdcB d3B | cBcd e2d2 | 
dgdB c2BA | GdcB G4 :: g2d2 g3f | edef  gage | d2G2 d2cB | 
ABcd  edef | g2d2g3f | edef gage | d2G2 d2cB | ABcd G4 :|

